X:22
T:Now or Never. WR1776.22
B:Wm.Randall CDs 1776
Z:vmp.Steve Mansfield 2015
M:2/4
L:1/8
W:Foot it all 4 & hands round foot it again & hands back again
W:lead down two Cu. up again cast off
Q:2/4=60
K:D
dA2 G/F/ | GB2 A/G/ | FdBe | dcBA |
df2 e/d/ | ce2 d/c/ | dBA^G | A2 A,2 :|
|: A,A2c | eg2e | f>gad | dcBA |
af2d | cA2G | Fd{f}e{d}c | d2 D2 :|

